static/logos/shutterstock-glyph-color.svg

<svg width="50" height="50" viewBox="0 0 50 50" fill="none" xmlns="http://www.w3.org/2000/svg">
<g clip-path="url(#clip0_1_1082)">
<path d="M0 2.85349V47.1465C0 48.7224 1.27747 50 2.85349 50H47.1465C48.7224 50 50 48.7225 50 47.1465V2.85349C49.9999 1.27747 48.7224 0 47.1465 0H2.85349C1.27747 0 0 1.27747 0 2.85349ZM22.7956 13.6328H14.9489C14.1609 13.6328 13.5199 14.2737 13.5199 15.0618V22.61H6.97285V15.0618C6.97285 10.6639 10.551 7.08572 14.9489 7.08572H22.7958L22.7956 13.6328ZM43.0271 34.9382C43.0271 39.3361 39.449 42.9143 35.0511 42.9143H27.2042V36.3672H35.0511C35.8391 36.3672 36.4801 35.7263 36.4801 34.9382V27.39H43.0271V34.9382Z" fill="#FF1A03"/>
</g>
<defs>
<clipPath id="clip0_1_1082">
<rect width="50" height="50" fill="white"/>
</clipPath>
</defs>
</svg>

<svg xmlns="http://www.w3.org/2000/svg" width="64" height="64" fill="none" viewBox="0 0 50 50"><g clip-path="url(#a)"><path fill="#FF1A03" d="M0 2.853v44.294A2.853 2.853 0 0 0 2.853 50h44.294A2.853 2.853 0 0 0 50 47.147V2.853A2.854 2.854 0 0 0 47.147 0H2.853A2.853 2.853 0 0 0 0 2.853Zm22.796 10.78h-7.847a1.43 1.43 0 0 0-1.43 1.429v7.548H6.974v-7.548c0-4.398 3.578-7.976 7.976-7.976h7.847v6.547Zm20.231 21.305c0 4.398-3.578 7.976-7.976 7.976h-7.847v-6.547h7.847a1.43 1.43 0 0 0 1.43-1.429V27.39h6.546v7.548Z"/></g><defs><clipPath id="a"><path fill="#fff" d="M0 0h50v50H0z"/></clipPath></defs></svg>
